X:390
%%etbk:tnset id:112,pos:1,rep:3x,ant:
%%etbk:tnset id:258,pos:5,rep:3x,ant:
%%etbk:wsite http://www.thesession.org/tunes/display/238
%%etbk:pldat 2016-06-23T18:27,2016-06-22T16:20,2016-06-21T16:24,2016-05-05T14:46,2016-05-03T17:09,2016-03-09T16:30,2016-03-05T13:54,2016-02-27T15:05,2015-10-08T17:57,2015-06-26T17:47,2015-06-18T19:03,2015-03-13T18:05,2015-03-09T18:09,2014-10-29T17:15,2014-10-28T15:23,2014-10-23T18:31,2014-08-21T19:21,2014-08-18T19:20,2014-06-25T16:08,2014-06-22T16:43,2014-06-11T16:52,2014-02-27T18:35,2014-02-25T19:47,2013-10-30T16:58,2013-10-26T16:58,2013-10-16T16:37
T: Ballydesmond 2, The
Z: Piano Box Version by Martin Fleischmann
H: Created 2013-02-19 /  Last Modified 2013-02-19
M: 2/4
L: 1/8
R: polka
K: Ador
|: "am"!1!E!3!A !1!AB | !3!c!4!d !3!e!5!g | "G"!1!G>!3!F !4!GA | !4!G!2!E {G}E!1!D |
"am"!1!E!3!A !1!AB | !3!c!4!d !3!ef | "em"!5!g!3!e !2!d/e/d/!1!B/ | "am"!1!A2 A2:|
|: "am"!3!a/b/a/g/ ab | !3!ag !1!e!2!f | "G"!3!g>f ga | !3!g!1!e {g}!2!e!1!d |
| "am"!3!a/b/a/g/ ab | !3!ag !1!e!4!f | "em"!5!g!3!e !2!d!1!B | "am"!1!A2 A2:|


